X: 42
T: No_142.krn
N: Derived from No_142.krn
%%abc-version 2.0
%%abcx-abcm2ps-target-version 5.9.1 (29 Sep 2008)
%%abc-creator hum2abc beta
%%abcx-conversion-date 2019/03/15 08:29:13
%%humdrum-veritas 3127030691
%%humdrum-veritas-data 216745392
%%linebreak <none>
%%barnumbers 0
L: 1/8
M: 3/4
K: D clef=bass
B,,2 [I:setbarnb 1]| 
F,4E,2 ||  
[M:2/4]F,4 ||  
[M:3/4]B,6 ||  
[M:2/4](3E,F,E,D,2 ||  
[M:3/4]E,4F,2 ||  
[M:4/4](3F,G,F, (3E,F,E, (3D,E,D,B,,2 ||  
[M:3/4]D,4E,2 | 
(3D,E,D,B,,2B,,2 | 
B,,4B,,2 | 
B,,6 | 
B,,4F,2 | 
B,4F,2 | 
B,4F2 | 
B,6- | 
B,2F,2E,2 ||  
[M:2/4]F,4 | 
B,4 | 
(3D,E,D,B,,2 ||  
[M:3/4]E,4F,2 ||  
[M:4/4](3F,G,F, (3E,F,E, (3D,E,D,B,,2 ||  
[M:3/4]D,4E,2 | 
(3D,E,D,B,,2B,,2 | 
B,,4B,,2 | 
B,,6 |]  



